X: 1
P: The Bobby Harvey Strathspey
R: strathspey
C: by Angus Fitchet, Newcastle Collection
C: Muriel Johnstone recording, arr. T. Traub 5-8-1997
M: 4/4
L: 1/8
K: F
R: strathspey
c|"F"A>cf>a "Gm"g<d d2|"C"e>fg>e "F"f<c c2|"Bb"d>Bf>d "F"c>A"D7"d>c|"Gm"B>A"G"G>F "C"E<G c2|
"F"A>cf>a "Gm"g<d d2|"C"e>fg>e "F"f<c c2|"Bb"d>Bf>d "F"c>AF>A|"Gm"B/A/G/F/ "C"E>c "F"A<FF>B ||
"F"A>Bc>f "Bb"dGg>f "C7"e<cc>_B|"F"A>Bc>f "Bb"d>c"F"A>c|"Gm"B/A/G/F/ "C"E>c "F"A<FF>B|
"F"A>Bc>f "Bb"dGg>f "C"e<c c2|"F"f<c (3c=Bc "Bb"d>c"F"A>F |"C"(3EFG c>B "F"A<F F |]
